src/img/icons/status_wrong.svg

<?xml version="1.0" encoding="UTF-8"?>
<svg viewBox="0 0 25 25" version="1.1" xmlns="http://www.w3.org/2000/svg" xmlns:xlink="http://www.w3.org/1999/xlink">
    <!-- Generator: Sketch 52.3 (67297) - http://www.bohemiancoding.com/sketch -->
    <title>Group 9</title>
    <desc>Created with Sketch.</desc>
    <g id="layouts" stroke="none" stroke-width="1" fill="none" fill-rule="evenodd">
        <g id="2_4_1-fill-fields" transform="translate(-633.000000, -1336.000000)">
            <g id="Group-6">
                <g id="Group-11" transform="translate(633.000000, 1336.000000)">
                    <g id="Group-9">
                        <circle id="Oval" fill="#E74C3C" fill-rule="nonzero" cx="12.5" cy="12.5" r="12.5"></circle>
                        <path d="M12.142,15.13 L11.854,8.992 L11.8,6.94 L13.888,6.94 L13.816,8.992 L13.528,15.13 L12.142,15.13 Z M12.844,19.216 C12.4599981,19.216 12.1390013,19.0840013 11.881,18.82 C11.6229987,18.5559987 11.494,18.220002 11.494,17.812 C11.494,17.403998 11.6229987,17.0680013 11.881,16.804 C12.1390013,16.5399987 12.4599981,16.408 12.844,16.408 C13.2280019,16.408 13.5459987,16.5399987 13.798,16.804 C14.0500013,17.0680013 14.176,17.403998 14.176,17.812 C14.176,18.220002 14.0500013,18.5559987 13.798,18.82 C13.5459987,19.0840013 13.2280019,19.216 12.844,19.216 Z" id="!" fill="#FFFFFF"></path>
                    </g>
                </g>
            </g>
        </g>
    </g>
</svg>

<svg viewBox="0 0 25 25" xmlns="http://www.w3.org/2000/svg"><g fill="none" fill-rule="evenodd"><circle fill="#E74C3C" fill-rule="nonzero" cx="12.5" cy="12.5" r="12.5"/><path d="M12.142 15.13l-.288-6.138L11.8 6.94h2.088l-.072 2.052-.288 6.138h-1.386zm.702 4.086c-.384 0-.705-.132-.963-.396s-.387-.6-.387-1.008c0-.408.129-.744.387-1.008s.579-.396.963-.396.702.132.954.396.378.6.378 1.008c0 .408-.126.744-.378 1.008s-.57.396-.954.396z" fill="#FFF"/></g></svg>
